X:50
T: MEIN HERZ IST IM HOCHLAND
N: B0534A
O: Europa, Mitteleuropa, Deutschland, Sueddeutschland
R: Wander -, Heimat - Lied
M: 3/4
L: 1/8
K: C
Ge | d2c3E | D2B3
A | G2F2DA | G4
Ge | d2c3E | D2B3
A | G2F2B,2 | C2z2
C2 | D2^FAcB | A2G2
D2 | D2^FAed | B3A
Ge | d2c3E | D2B3
A | G2f3B | c4

@@@ Tune index: 2268
